assets/img/icon-market.svg

<?xml version="1.0" encoding="UTF-8" standalone="no"?>
<svg width="59px" height="41px" viewBox="0 0 59 41" version="1.1" xmlns="http://www.w3.org/2000/svg" xmlns:xlink="http://www.w3.org/1999/xlink">
    <!-- Generator: Sketch 39 (31667) - http://www.bohemiancoding.com/sketch -->
    <title>Page 1</title>
    <desc>Created with Sketch.</desc>
    <defs>
        <polygon id="path-1" points="58.2664 0.542 0.0004 0.542 0.0004 31.0807 58.2664 31.0807 58.2664 0.542"></polygon>
    </defs>
    <g id="Page-1" stroke="none" stroke-width="1" fill="none" fill-rule="evenodd">
        <g transform="translate(0.000000, -1.000000)">
            <path d="M38.9609,40.458 C37.1509,40.458 35.6789,38.985 35.6789,37.175 C35.6789,35.364 37.1509,33.892 38.9609,33.892 C40.7729,33.892 42.2459,35.364 42.2459,37.175 C42.2459,38.985 40.7729,40.458 38.9609,40.458 M38.9609,32.892 C36.5999,32.892 34.6789,34.813 34.6789,37.175 C34.6789,39.536 36.5999,41.458 38.9609,41.458 C41.3239,41.458 43.2459,39.536 43.2459,37.175 C43.2459,34.813 41.3239,32.892 38.9609,32.892" id="Fill-1" fill="#939597"></path>
            <path d="M25.124,40.458 C23.314,40.458 21.841,38.985 21.841,37.175 C21.841,35.364 23.314,33.892 25.124,33.892 C26.935,33.892 28.407,35.364 28.407,37.175 C28.407,38.985 26.935,40.458 25.124,40.458 M25.124,32.892 C22.763,32.892 20.841,34.813 20.841,37.175 C20.841,39.536 22.763,41.458 25.124,41.458 C27.485,41.458 29.407,39.536 29.407,37.175 C29.407,34.813 27.485,32.892 25.124,32.892" id="Fill-3" fill="#939597"></path>
            <g id="Group-7" transform="translate(0.000000, 0.458000)">
                <mask id="mask-2" fill="white">
                    <use xlink:href="#path-1"></use>
                </mask>
                <g id="Clip-6"></g>
                <path d="M57.2304,14.8887 L55.5314,15.2187 C55.3444,15.2557 55.1954,15.3947 55.1444,15.5777 C54.9304,16.3597 54.6184,17.1137 54.2164,17.8177 C54.1234,17.9837 54.1304,18.1877 54.2374,18.3447 L55.2664,19.7687 L52.5564,22.4297 L51.1264,21.4627 C50.9674,21.3537 50.7624,21.3497 50.5974,21.4437 C49.8914,21.8487 49.1354,22.1627 48.3504,22.3787 C48.1674,22.4297 48.0284,22.5797 47.9924,22.7667 L47.6674,24.4907 L45.7444,24.4727 L44.6734,24.4627 L43.9194,24.4557 L43.5944,22.7757 C43.5584,22.5877 43.4174,22.4377 43.2344,22.3877 C42.4484,22.1747 41.6874,21.8607 40.9724,21.4517 C40.8954,21.4087 40.8094,21.3867 40.7244,21.3867 C40.6264,21.3867 40.5294,21.4147 40.4444,21.4727 L39.0414,22.4907 L36.9164,20.3277 L36.3784,19.7817 L36.6854,19.3277 L37.3334,18.3687 C37.4404,18.2107 37.4474,18.0057 37.3524,17.8397 C36.9424,17.1237 36.6254,16.3617 36.4104,15.5727 C36.3604,15.3877 36.2094,15.2477 36.0224,15.2117 L34.3174,14.9407 L34.3204,14.6867 L34.3294,13.6867 L34.3534,11.1437 L36.0234,10.8197 C36.2094,10.7817 36.3604,10.6437 36.4104,10.4597 C36.6254,9.6697 36.9424,8.9087 37.3524,8.1937 C37.4474,8.0287 37.4404,7.8227 37.3334,7.6637 L36.3184,6.2647 L39.0294,3.6027 L40.4454,4.5587 C40.6024,4.6657 40.8074,4.6737 40.9714,4.5787 C41.6864,4.1727 42.4474,3.8587 43.2344,3.6457 C43.4174,3.5957 43.5584,3.4457 43.5944,3.2577 L43.8674,1.5417 L47.6654,1.5757 L47.9924,3.2657 C48.0284,3.4517 48.1674,3.6027 48.3504,3.6537 C49.1314,3.8677 49.8874,4.1827 50.5984,4.5887 C50.7644,4.6827 50.9684,4.6757 51.1264,4.5687 L52.5444,3.5417 L55.2064,6.2507 L54.2374,7.6847 C54.1304,7.8427 54.1234,8.0467 54.2164,8.2117 C54.6194,8.9207 54.9314,9.6747 55.1444,10.4547 C55.1944,10.6387 55.3444,10.7787 55.5324,10.8147 L57.2664,11.0927 L57.2304,14.8887 Z M57.4344,10.1607 L57.4204,10.1607 L56.0224,9.8907 C55.8224,9.2357 55.5584,8.5987 55.2354,7.9907 L55.9744,6.8837 C56.1524,6.7047 56.2494,6.4677 56.2484,6.2157 C56.2474,5.9657 56.1494,5.7307 55.9734,5.5577 L53.2524,2.8357 C52.9004,2.4817 52.2074,2.5387 51.9964,2.7747 L50.8204,3.5687 C50.2094,3.2427 49.5714,2.9777 48.9144,2.7757 L48.6564,1.4817 C48.6564,0.9637 48.2344,0.5417 47.7154,0.5417 L43.8674,0.5417 C43.3494,0.5417 42.9284,0.9637 42.9374,1.3867 L42.6704,2.7667 C42.0074,2.9677 41.3644,3.2337 40.7504,3.5607 L39.6614,2.8337 C39.3044,2.4797 38.6824,2.4837 38.3344,2.8347 L35.6134,5.5557 C35.4344,5.7327 35.3354,5.9677 35.3354,6.2197 C35.3354,6.4717 35.4334,6.7077 35.5504,6.8117 L36.3334,7.9697 C36.0024,8.5857 35.7344,9.2327 35.5314,9.8977 L34.2574,10.1527 C33.7394,10.1527 33.3174,10.5747 33.3174,11.0927 L33.3174,13.6867 L17.3034,13.6867 C17.0274,13.6867 16.8034,13.9097 16.8034,14.1867 C16.8034,14.4627 17.0274,14.6867 17.3034,14.6867 L33.3174,14.6867 L33.3174,14.9407 C33.3174,15.4527 33.7304,15.8707 34.1494,15.8707 L34.1634,15.8707 L35.5324,16.1357 C35.7344,16.8007 36.0024,17.4477 36.3344,18.0647 L35.6114,19.1477 C35.5584,19.1997 35.5284,19.2667 35.4904,19.3277 L19.8764,19.3277 C19.5994,19.3277 19.3764,19.5517 19.3764,19.8277 C19.3764,20.1047 19.5994,20.3277 19.8764,20.3277 L35.5114,20.3277 C35.5454,20.3777 35.5684,20.4327 35.6114,20.4757 L38.3314,23.1947 C38.6834,23.5517 39.3764,23.4927 39.5884,23.2577 L40.7514,22.4727 C41.3664,22.7997 42.0104,23.0667 42.6724,23.2667 L42.9174,24.4907 L21.5474,24.4907 C21.2714,24.4907 21.0474,24.7137 21.0474,24.9907 C21.0474,25.2667 21.2714,25.4907 21.5474,25.4907 L43.8674,25.4907 L44.2684,25.4907 L42.4594,30.0807 L20.6864,30.0807 L12.1154,6.8227 C12.1144,6.8197 12.1114,6.8177 12.1104,6.8137 C12.0934,6.7727 12.0674,6.7387 12.0424,6.7037 C12.0294,6.6867 12.0204,6.6647 12.0044,6.6497 C11.9784,6.6207 11.9454,6.6037 11.9134,6.5827 C11.8914,6.5687 11.8734,6.5497 11.8484,6.5397 C11.8214,6.5277 11.7914,6.5257 11.7624,6.5187 C11.7274,6.5097 11.6944,6.4977 11.6584,6.4967 C11.6544,6.4967 11.6504,6.4947 11.6464,6.4947 L0.5004,6.4947 C0.2234,6.4947 0.0004,6.7187 0.0004,6.9947 C0.0004,7.2717 0.2234,7.4947 0.5004,7.4947 L11.2974,7.4947 L19.8694,30.7537 C19.8704,30.7567 19.8734,30.7577 19.8744,30.7597 C19.9084,30.8487 19.9674,30.9167 20.0374,30.9707 C20.0524,30.9827 20.0684,30.9927 20.0844,31.0027 C20.1624,31.0477 20.2474,31.0807 20.3374,31.0807 L42.7984,31.0807 C42.8874,31.0807 42.9714,31.0497 43.0474,31.0047 C43.0644,30.9947 43.0804,30.9847 43.0964,30.9727 C43.1664,30.9197 43.2264,30.8547 43.2614,30.7677 C43.2614,30.7677 43.2634,30.7657 43.2634,30.7647 L45.3424,25.4907 L47.7154,25.4907 C48.2344,25.4907 48.6564,25.0687 48.6474,24.6457 L48.9164,23.2557 C49.5754,23.0537 50.2144,22.7867 50.8224,22.4617 L51.9234,23.1977 C52.1014,23.3747 52.3374,23.4727 52.5884,23.4727 C52.8394,23.4727 53.0754,23.3747 53.2514,23.1977 L55.9724,20.4767 C56.3374,20.1137 56.3394,19.5177 56.0344,19.2217 L55.2364,18.0387 C55.5584,17.4327 55.8224,16.7967 56.0224,16.1407 L57.3264,15.8797 C57.8444,15.8797 58.2664,15.4577 58.2664,14.9407 L58.2664,11.0927 C58.2664,10.5797 57.8534,10.1607 57.4344,10.1607 L57.4344,10.1607 Z" id="Fill-5" fill="#939597" mask="url(#mask-2)"></path>
            </g>
            <path d="M45.792,19.0742 C43.18,19.0742 40.986,17.2732 40.371,14.8492 C40.304,14.5812 40.249,14.3072 40.222,14.0262 C40.204,13.8452 40.193,13.6612 40.193,13.4742 C40.193,10.3882 42.705,7.8752 45.792,7.8752 C48.879,7.8752 51.392,10.3882 51.392,13.4742 C51.392,16.5612 48.879,19.0742 45.792,19.0742 M45.792,7.0522 C42.251,7.0522 39.37,9.9332 39.37,13.4742 C39.37,13.6612 39.382,13.8442 39.398,14.0262 C39.422,14.3062 39.463,14.5812 39.521,14.8492 C39.864,16.4132 40.779,17.7622 42.034,18.6722 C42.251,18.8292 42.475,18.9772 42.711,19.1072 C43.627,19.6102 44.676,19.8972 45.792,19.8972 C49.334,19.8972 52.215,17.0152 52.215,13.4742 C52.215,9.9332 49.334,7.0522 45.792,7.0522" id="Fill-8" fill="#939597"></path>
        </g>
    </g>
</svg>

<svg width="59" height="41" viewBox="0 0 59 41" xmlns="http://www.w3.org/2000/svg" xmlns:xlink="http://www.w3.org/1999/xlink"><title>Page 1</title><defs><path id="a" d="M58.266.542H0v30.539h58.266V.542z"/></defs><g fill="none" fill-rule="evenodd"><path d="M38.96 39.458a3.286 3.286 0 0 1-3.281-3.283 3.286 3.286 0 0 1 3.282-3.283 3.287 3.287 0 0 1 3.285 3.283 3.287 3.287 0 0 1-3.285 3.283m0-7.566a4.287 4.287 0 0 0-4.282 4.283 4.288 4.288 0 0 0 4.282 4.283 4.29 4.29 0 0 0 4.285-4.283 4.288 4.288 0 0 0-4.285-4.283m-13.837 7.566a3.287 3.287 0 0 1-3.283-3.283 3.286 3.286 0 0 1 3.283-3.283 3.286 3.286 0 0 1 3.283 3.283 3.286 3.286 0 0 1-3.283 3.283m0-7.566a4.288 4.288 0 0 0-4.283 4.283 4.289 4.289 0 0 0 4.283 4.283 4.289 4.289 0 0 0 4.283-4.283 4.288 4.288 0 0 0-4.283-4.283" fill="#939597"/><g transform="translate(0 -.542)"><mask id="b" fill="#fff"><use xlink:href="#a"/></mask><path d="M57.23 14.889l-1.699.33a.503.503 0 0 0-.387.359 9.666 9.666 0 0 1-.928 2.24.5.5 0 0 0 .021.527l1.03 1.424-2.71 2.66-1.43-.966a.498.498 0 0 0-.53-.02 9.677 9.677 0 0 1-2.247.936.501.501 0 0 0-.358.388l-.325 1.724-1.923-.018-1.07-.01-.755-.007-.325-1.68a.501.501 0 0 0-.36-.388 9.631 9.631 0 0 1-2.262-.936.494.494 0 0 0-.528.021l-1.403 1.018-2.125-2.163-.538-.546.307-.454.648-.96a.5.5 0 0 0 .02-.528 9.693 9.693 0 0 1-.943-2.267.5.5 0 0 0-.388-.361l-1.705-.271.003-.254.01-1 .023-2.543 1.67-.324a.504.504 0 0 0 .387-.36 9.65 9.65 0 0 1 .942-2.266.502.502 0 0 0-.019-.53l-1.015-1.4 2.711-2.661 1.416.956a.495.495 0 0 0 .526.02 9.74 9.74 0 0 1 2.263-.933c.183-.05.324-.2.36-.388l.273-1.716 3.798.034.327 1.69a.503.503 0 0 0 .358.388 9.716 9.716 0 0 1 2.248.935.5.5 0 0 0 .528-.02l1.418-1.027 2.662 2.709-.969 1.434a.5.5 0 0 0-.02.527c.402.709.714 1.463.927 2.243a.5.5 0 0 0 .388.36l1.734.278-.036 3.796zm.204-4.728h-.014l-1.398-.27c-.2-.655-.464-1.292-.787-1.9l.74-1.107a.935.935 0 0 0-.002-1.326l-2.72-2.722c-.353-.354-1.046-.297-1.257-.061l-1.176.794a10.774 10.774 0 0 0-1.906-.793l-.258-1.294a.942.942 0 0 0-.94-.94h-3.849c-.518 0-.939.422-.93.845l-.267 1.38a10.6 10.6 0 0 0-1.92.794l-1.089-.727c-.357-.354-.979-.35-1.327 0l-2.72 2.722a.926.926 0 0 0-.279.664c0 .252.098.488.215.592l.783 1.158a10.635 10.635 0 0 0-.802 1.928l-1.274.255a.941.941 0 0 0-.94.94v2.594H17.303a.5.5 0 1 0 0 1h16.014v.254c0 .512.413.93.832.93h.014l1.37.265c.201.665.47 1.312.801 1.929l-.723 1.083c-.053.052-.083.119-.12.18H19.875a.5.5 0 1 0 0 1H35.51c.034.05.057.105.1.148l2.72 2.719c.352.357 1.045.298 1.257.063l1.163-.785c.615.327 1.26.594 1.921.794l.245 1.224h-21.37a.5.5 0 1 0 0 1h22.721l-1.809 4.59H20.686l-8.57-23.258c-.002-.003-.005-.005-.006-.01-.017-.04-.043-.074-.068-.11-.013-.016-.022-.038-.038-.053-.026-.03-.059-.046-.09-.067-.023-.014-.04-.033-.066-.043-.027-.012-.057-.014-.086-.021-.035-.01-.068-.021-.104-.022l-.012-.002H.5a.5.5 0 1 0 0 1h10.797l8.572 23.259c.001.003.004.004.005.006a.484.484 0 0 0 .163.21c.015.013.031.023.047.033a.51.51 0 0 0 .253.078h22.461a.491.491 0 0 0 .25-.076.514.514 0 0 0 .213-.237l.002-.003 2.08-5.274h2.372c.52 0 .941-.422.932-.845l.27-1.39a10.698 10.698 0 0 0 1.905-.794l1.101.736a.937.937 0 0 0 1.328 0l2.721-2.721c.365-.363.367-.96.062-1.255l-.798-1.183c.322-.606.586-1.242.786-1.898l1.304-.261c.518 0 .94-.422.94-.94v-3.847c0-.513-.413-.932-.832-.932z" fill="#939597" mask="url(#b)"/></g><path d="M45.792 18.074c-2.612 0-4.806-1.8-5.421-4.225a5.603 5.603 0 0 1-.178-1.375 5.606 5.606 0 0 1 5.599-5.599c3.087 0 5.6 2.513 5.6 5.6 0 3.086-2.513 5.6-5.6 5.6m0-12.023a6.43 6.43 0 0 0-6.422 6.422c0 .187.012.37.028.552.024.28.065.555.123.823a6.432 6.432 0 0 0 2.513 3.823c.217.157.441.305.677.435a6.38 6.38 0 0 0 3.081.79 6.43 6.43 0 0 0 6.423-6.423 6.43 6.43 0 0 0-6.423-6.422" fill="#939597"/></g></svg>
